X: 091
T: General Graham's Hornpipe
%R: hornpipe, reel
B: J.Gray's Twenty four Country Dances (for the Year 1812) p.9 #1
S: http://www.eatmt.org.uk/gray_1812.htm 2014-8-7
Z: 2014 John Chambers <jc:trillian.mit.edu>
M: C|
L: 1/8
K: F
cB !segno!|\
AfcA cBGE | FEFG AFCA, | B,DCF Dcdc | BAGF E2cB |
AfcA cBGE | FEFG AFCA, | B,DCF DdcB | AGFE F2 H:|
|: AB |\
cAfc afcA | BGeB gebB | Aefe dcBA | G2GG G_A=AB |
cAfc afcA | BGeB gebf | eagf efed | cfed ((3cdc) ((3BA"D.C."G) !segno!|]
% - - - - - - - - - - - - - - - - - - - - - - - - -
%%begintext align
%% Change side back again. down mid: up again. Allemande
%% and right & left at top.
%%endtext
% - - - - - - - - - - - - - - - - - - - - - - - - -
